X:1
T:The Night That Paddy Murphy Died
M:4/4
L:1/4
K:F
 C| F F F F| F F C3/2 C/2| D E F D| C3| C| F F F E| F F C3/2 C/2| D G G G|\
 G3| C| F F F C| F F F C| D G F D| C3| C| F F F G| A c c B| A F G E|\
 F2 z D| F2 F3/2 F/2| F2 C C| D E F D| C C2 z| F2 F3/2 F/2| F3 E| D D G F|\
 E3 z| F2 F3/2 F/2| F2 C C| D E F D| C C C C| F E F G| A c c3/2 B/2|\
 A F G E| F3||
